build/img/close_small.svg

<svg width="24" height="24" viewBox="0 0 24 24" fill="none" xmlns="http://www.w3.org/2000/svg">
<path fill-rule="evenodd" clip-rule="evenodd" d="M8.70711 7.29289L8 6.58579L6.58579 8L7.29289 8.70711L10.5858 12L7.29289 15.2929L6.58579 16L8 17.4142L8.70711 16.7071L12 13.4142L15.2929 16.7071L16 17.4142L17.4142 16L16.7071 15.2929L13.4142 12L16.7071 8.70711L17.4142 8L16 6.58579L15.2929 7.29289L12 10.5858L8.70711 7.29289Z" fill="#151515"/>
</svg>

<svg width="24" height="24" viewBox="0 0 24 24" fill="none" xmlns="http://www.w3.org/2000/svg"><path fill-rule="evenodd" clip-rule="evenodd" d="M8.707 7.293L8 6.586 6.586 8l.707.707L10.586 12l-3.293 3.293-.707.707L8 17.414l.707-.707L12 13.414l3.293 3.293.707.707L17.414 16l-.707-.707L13.414 12l3.293-3.293.707-.707L16 6.586l-.707.707L12 10.586 8.707 7.293z" fill="#151515"/></svg>
